map_marker_monochrome/openmoji_cooking.svg

<svg xmlns="http://www.w3.org/2000/svg" width="24" height="24" viewBox="0 0 24 24"> <g transform="scale(0.333333333)">  <g id="line">
    <path fill="none" stroke="#000000" stroke-linecap="round" stroke-linejoin="round" stroke-miterlimit="10" stroke-width="2" d="M61.8789,5.8789L50.1348,17.8623c1.4922,1.166,2.8369,2.5098,4.0019,4.0029l11.9844-11.7441c1.1719-1.1719,1.1719-3.0713,0-4.2432	C64.9492,4.707,63.0508,4.707,61.8789,5.8789z"/>
    <path fill="none" stroke="#000000" stroke-linecap="round" stroke-linejoin="round" stroke-miterlimit="10" stroke-width="2" d="M54.1367,21.8652c-1.164-1.4931-2.5097-2.8369-4.0019-4.0029C46.2344,14.8193,41.3311,13,36,13c-12.7031,0-23,10.2979-23,23	s10.2969,23,23,23s23-10.2979,23-23C59,30.6689,57.1816,25.7656,54.1367,21.8652z"/>
    <circle cx="36" cy="35.875" r="5" fill="none" stroke="#000000" stroke-linecap="round" stroke-linejoin="round" stroke-miterlimit="10" stroke-width="2"/>
    <path fill="none" stroke="#000000" stroke-linecap="round" stroke-linejoin="round" stroke-miterlimit="10" stroke-width="2" d="M47.2246,37.5498c-0.0723-0.0352-0.1435-0.0703-0.2168-0.1016c-0.6338-0.3359-1.0566-1.0869-1.0566-1.8535	c0-0.0009-0.0117-0.0224-0.0147-0.0293c-0.1377-3.1992-1.7715-6.0068-4.2275-7.7383c-0.4551-0.373-0.7666-0.9658-0.7666-1.5937	C40.5732,23.8359,38.5,22,36,22c-2.2852,0-4.2129,1.5342-4.8086,3.6279c-0.0508,0.1778-0.1182,0.4092-0.1338,0.5957	c-0.0488,0.5918-0.2763,1.1143-0.6826,1.4795C27.7109,29.5,25.959,32.5449,25.959,36c0,5.5225,4.4765,10,10,10	c1.3525,0,2.6406-0.2715,3.8183-0.7588c0.5977-0.1641,1.253-0.0478,1.7637,0.3555c0.0606,0.0478,0.125,0.0918,0.1807,0.1474	l-0.0088,0.0108C42.5898,46.5273,43.7383,47,45,47c2.7617,0,5-2.2393,5-5C50,40.042,48.8633,38.3682,47.2246,37.5498z"/>
  </g></g></svg>

<svg xmlns="http://www.w3.org/2000/svg" width="24" height="24" viewBox="0 0 24 24"> <g transform="translate(0.000013715825561533279 0.0) scale(0.4286195487696985)">
  
  <g
     id="line"
     transform="translate(-12,-4.0062881)">
    <path
       fill="none"
       stroke="#000"
       stroke-linecap="round"
       stroke-linejoin="round"
       stroke-miterlimit="10"
       stroke-width="2"
       d="M 61.8789,5.8789 50.1348,17.8623 c 1.4922,1.166 2.8369,2.5098 4.0019,4.0029 L 66.1211,10.1211 c 1.1719,-1.1719 1.1719,-3.0713 0,-4.2432 C 64.9492,4.707 63.0508,4.707 61.8789,5.8789 Z"
       id="path2" />
    <path
       fill="none"
       stroke="#000"
       stroke-linecap="round"
       stroke-linejoin="round"
       stroke-miterlimit="10"
       stroke-width="2"
       d="M 54.1367,21.8652 C 52.9727,20.3721 51.627,19.0283 50.1348,17.8623 46.2344,14.8193 41.3311,13 36,13 23.2969,13 13,23.2979 13,36 13,48.7021 23.2969,59 36,59 48.7031,59 59,48.7021 59,36 59,30.6689 57.1816,25.7656 54.1367,21.8652 Z"
       id="path4" />
    <circle
       cx="36"
       cy="35.875"
       r="5"
       fill="none"
       stroke="#000"
       stroke-linecap="round"
       stroke-linejoin="round"
       stroke-miterlimit="10"
       stroke-width="2"
       id="circle6" />
    <path
       fill="none"
       stroke="#000"
       stroke-linecap="round"
       stroke-linejoin="round"
       stroke-miterlimit="10"
       stroke-width="2"
       d="m 47.2246,37.5498 c -0.0723,-0.0352 -0.1435,-0.0703 -0.2168,-0.1016 -0.6338,-0.3359 -1.0566,-1.0869 -1.0566,-1.8535 0,-9e-4 -0.0117,-0.0224 -0.0147,-0.0293 C 45.7988,32.3662 44.165,29.5586 41.709,27.8271 41.2539,27.4541 40.9424,26.8613 40.9424,26.2334 40.5732,23.8359 38.5,22 36,22 c -2.2852,0 -4.2129,1.5342 -4.8086,3.6279 -0.0508,0.1778 -0.1182,0.4092 -0.1338,0.5957 -0.0488,0.5918 -0.2763,1.1143 -0.6826,1.4795 C 27.7109,29.5 25.959,32.5449 25.959,36 c 0,5.5225 4.4765,10 10,10 1.3525,0 2.6406,-0.2715 3.8183,-0.7588 0.5977,-0.1641 1.253,-0.0478 1.7637,0.3555 0.0606,0.0478 0.125,0.0918 0.1807,0.1474 l -0.0088,0.0108 C 42.5898,46.5273 43.7383,47 45,47 c 2.7617,0 5,-2.2393 5,-5 0,-1.958 -1.1367,-3.6318 -2.7754,-4.4502 z"
       id="path8" />
  </g>
</g></svg>
